Papirus/32x32/devices/video-television.svg

<?xml version="1.0" encoding="UTF-8" standalone="no"?>
<svg xmlns="http://www.w3.org/2000/svg" height="32" width="32" version="1">
 <rect transform="matrix(0,-1,-1,0,0,0)" rx="1.313" ry="1.333" height="16" width="21" y="-24" x="-28" fill="#7e7e7e"/>
 <rect ry="1.3" rx="1.25" transform="matrix(0,-1,-1,0,0,0)" height="26" width="20" y="-29" x="-25" fill="#6d6d6d"/>
 <rect transform="matrix(0,-1,-1,0,0,0)" rx="0" ry="0" height="22" width="16" y="-27" x="-23" fill="#464646"/>
 <g opacity=".8" fill="#fff">
  <path opacity="1" d="m8 10v3h2v7h3v-7h2v-3h-4.5384z"/>
  <path opacity="1" d="m17 10 2 10h4l2-10h-3l-1 7-1-7z"/>
 </g>
 <path opacity=".1" d="m4.3008 5c-0.7202 0-1.3008 0.5575-1.3008 1.25v1c0-0.6925 0.5806-1.25 1.3008-1.25h23.398c0.72 0 1.301 0.5575 1.301 1.25v-1c0-0.6925-0.581-1.25-1.301-1.25h-23.398z" fill="#fff"/>
 <path opacity=".2" d="m8 26.688v1c0 0.727 0.5953 1.312 1.334 1.312h13.332c0.739 0 1.334-0.585 1.334-1.312v-1c0 0.727-0.595 1.312-1.334 1.312h-13.332c-0.7387 0-1.334-0.585-1.334-1.312z"/>
 <path opacity=".2" d="m3 23.75v1c0 0.692 0.5806 1.25 1.3008 1.25h23.398c0.72 0 1.301-0.558 1.301-1.25v-1c0 0.692-0.581 1.25-1.301 1.25h-23.398c-0.7204 0-1.301-0.558-1.301-1.25z"/>
</svg>

<svg xmlns="http://www.w3.org/2000/svg" width="32" height="32" version="1.1">
 <rect style="opacity:0.2" width="21" height="16" x="-29" y="-24" rx="1.25" ry="1.25" transform="matrix(0,-1,-1,0,0,0)"/>
 <rect style="fill:#7e7e7e" width="21" height="16" x="-28" y="-24" rx="1.25" ry="1.25" transform="matrix(0,-1,-1,0,0,0)"/>
 <rect style="opacity:0.2" width="20" height="26" x="-26" y="-29" rx="1.25" ry="1.25" transform="matrix(0,-1,-1,0,0,0)"/>
 <rect style="fill:#8e8e8e" width="20" height="26" x="-25" y="-29" rx="1.25" ry="1.25" transform="matrix(0,-1,-1,0,0,0)"/>
 <rect fill="#4d4d4d" width="16" height="22" x="-23" y="-27" rx="0" ry="0" transform="matrix(0,-1,-1,0,0,0)"/>
 <path style="fill:#ffffff;opacity:0.2" d="M 4.25 5 C 3.5575 5 3 5.5575 3 6.25 L 3 7.25 C 3 6.5575 3.5575 6 4.25 6 L 27.75 6 C 28.442 6 29 6.5575 29 7.25 L 29 6.25 C 29 5.5575 28.442 5 27.75 5 L 4.25 5 z"/>
 <g style="fill:#cccccc">
  <path style="fill:#cccccc" d="M 8,10 V 13 H 10 V 20 H 13 V 13 H 15 V 10 H 10.462 Z"/>
  <path style="fill:#cccccc" d="M 17,10 19,20 H 23 L 25,10 H 22 L 21,17 20,10 Z"/>
 </g>
</svg>
